src/assets/fleet-icons/call.svg

<svg width="20" height="20" viewBox="0 0 20 20" fill="none" xmlns="http://www.w3.org/2000/svg">
<path d="M7.41069 3.95834H5.0568C4.45012 3.95834 3.95831 4.45015 3.95831 5.05683C3.95831 11.1236 8.8764 16.0417 14.9432 16.0417C15.5498 16.0417 16.0416 15.5499 16.0416 14.9432V12.5893L13.4524 10.8631L12.1097 12.2057C11.8766 12.4389 11.5281 12.5114 11.2351 12.3601C10.7381 12.1034 9.93177 11.621 9.13688 10.8631C8.32305 10.0871 7.84622 9.25096 7.60689 8.74497C7.47276 8.46141 7.55041 8.1341 7.77222 7.9123L9.13688 6.54763L7.41069 3.95834Z" stroke="#656565" stroke-linecap="round" stroke-linejoin="round"/>
</svg>

<svg width="20" height="20" fill="none" xmlns="http://www.w3.org/2000/svg">
    <path
        d="M7.41 3.958H5.058c-.607 0-1.099.492-1.099 1.099 0 6.067 4.918 10.985 10.985 10.985.607 0 1.099-.492 1.099-1.099V12.59l-2.59-1.726-1.342 1.343a.749.749 0 0 1-.875.154 9.243 9.243 0 0 1-2.098-1.497 7.271 7.271 0 0 1-1.53-2.118c-.134-.284-.057-.61.165-.833l1.365-1.364-1.726-2.59Z"
        stroke="#656565" stroke-linecap="round" stroke-linejoin="round" />
</svg>
